X:10
T:O'Carolan's Quarrel with the Landlady
R:carolan
C:Turlough O'Carolan (1670-1738)
H:Another version "O'Carolan's Ramble to Cashel" #6
Z:id:hn-carolan-10
M:6/8
L:1/16
K:Em
BA | G3AB2 g4ga | bagfed g4gf | e3fed e2f2gf | edcBAG A4BA |
G3AB2 g4ga | bagfed g4gf | e2fedB d2edBA | B6 B4gf |
e2fedB d2edBA | B2e2e2 e4||
ga | b2g2b2 bagfed | d2f2g2 a4 (3abc' | bagfed e2f2gf | edcBAG A3cBA |
G3AB2 g4ga | bagfed g4f2 | e2fedB d2edBA | B6 e4f2 |
e2fedB d2edBA | B2e2e2 e4||
<end>
<start>
